X:1
T:The Wagoner's Lad
M:3/4
L:1/4
K:C
E/2-D/2| C A, G,| A, CE/2-D/2| C G, A,| G,2 C| D C D| E- G A/2A/2|\
 G E C| D2 C| D C D| E G A| G E C| D2E/2-D/2| C A, G,| A, C D/2D/2|\
 C G, A,| G,2||
